icons/sip-fill.svg

<svg xmlns="http://www.w3.org/2000/svg" width="24" height="24" fill="none"><g clip-path="url(#a)"><g><path fill="#121212" d="M13.96 6.50397L16.789 3.67597C16.9765 3.48849 17.2308 3.38318 17.496 3.38318C17.7612 3.38318 18.0155 3.48849 18.203 3.67597L20.324 5.79697C20.5115 5.98449 20.6168 6.2388 20.6168 6.50397C20.6168 6.76913 20.5115 7.02344 20.324 7.21097L17.496 10.04L19.263 11.808L17.849 13.222L10.779 6.15097L12.192 4.73697L13.96 6.50397ZM10.778 8.97996L15.021 13.223L7.243 21H3V16.757L10.778 8.97897V8.97996Z"/></g></g><defs><clipPath id="a"><rect width="24" height="24" fill="white"/></clipPath></defs></svg>

<svg width="24" height="24" fill="none" xmlns="http://www.w3.org/2000/svg"><g clip-path="url(#a)"><path d="m13.96 6.504 2.829-2.828a1 1 0 0 1 1.414 0l2.121 2.121a1 1 0 0 1 0 1.414l-2.828 2.829 1.767 1.768-1.414 1.414-7.07-7.071 1.413-1.414 1.768 1.767ZM10.778 8.98l4.243 4.243L7.243 21H3v-4.243l7.778-7.778v.001Z" /></g><defs><clipPath id="a"><path fill="#fff" d="M0 0h24v24H0z"/></clipPath></defs></svg>
